src/assets/icons/return_trip.svg

<svg width="24" height="24" viewBox="0 0 24 24" fill="none" xmlns="http://www.w3.org/2000/svg">
<path fill-rule="evenodd" clip-rule="evenodd" d="M23.8216 8.00475C23.8259 8.43929 22.68 8.79657 22.2407 8.79315C22.2089 8.79154 22.1771 8.78993 22.1328 8.78138L21.3642 8.72348L19.9178 11.5393C19.8692 11.6564 19.8409 11.7368 19.7263 11.7373L19.3313 11.7424C19.0702 11.7417 19.0973 11.6928 19.1277 11.5495L19.6847 9.04109L19.6737 8.61879L19.2797 8.59249C18.8018 8.59971 18.2136 8.48172 17.74 8.36326L17.0755 9.35556C16.968 9.52005 16.9987 9.55309 16.8841 9.55356C16.623 9.5529 16.6684 9.53002 16.6805 9.36068L16.861 8.18016C16.8563 8.12957 16.871 8.07366 16.9039 8.04386C16.8981 8.02469 16.8731 8.01083 16.8799 7.99858C16.8742 7.97941 16.9003 7.96185 16.9332 7.93204C16.8832 7.90433 16.866 7.84681 16.8614 7.79621L16.6468 6.62082C16.6272 6.44987 16.5897 6.42908 16.8383 6.42282C16.9529 6.42234 16.9326 6.45908 17.0418 6.61569L17.7522 7.63371C18.2151 7.50614 18.7916 7.40951 19.2627 7.41454L19.652 7.39024L19.641 6.96794L19.0072 4.45569C18.974 4.30923 18.9376 4.25703 19.1987 4.25769L19.5937 4.25257C19.7083 4.25209 19.7312 4.32879 19.7905 4.45769L21.3375 7.26808L22.1037 7.21255C22.148 7.22109 22.1865 7.21046 22.2183 7.21207C22.6576 7.21549 23.8174 7.5702 23.8216 8.00475ZM0.175981 15.7462C0.186899 15.3118 1.34451 14.9947 1.78345 15.0135C1.81516 15.0162 1.84688 15.0189 1.89084 15.029L2.65699 15.1137L4.20081 12.3501C4.25345 12.2347 4.28446 12.1554 4.39906 12.1589L4.79404 12.1675C5.05495 12.1773 5.02611 12.2253 4.99075 12.3674L4.34651 14.8549L4.3428 15.2773L4.7356 15.3173C5.21346 15.3268 5.79724 15.4653 6.26642 15.6002L6.96507 14.6317C7.07827 14.471 7.04873 14.4369 7.16333 14.4405C7.42424 14.4502 7.37811 14.4715 7.36005 14.6403L7.13849 15.8138C7.14136 15.8646 7.12476 15.9199 7.09088 15.9486C7.09592 15.9679 7.12043 15.9826 7.11321 15.9946C7.11826 16.014 7.09158 16.0307 7.0577 16.0593C7.1067 16.0887 7.12183 16.1468 7.1247 16.1975L7.29811 17.3797C7.31176 17.5512 7.34851 17.5733 7.09985 17.5709C6.98525 17.5674 7.00689 17.5314 6.90314 17.371L6.22876 16.3289C5.76168 16.4402 5.18218 16.5167 4.71153 16.4952L4.32159 16.5059L4.31789 16.9283L4.8636 19.4611C4.89167 19.6087 4.92625 19.6621 4.66534 19.6523L4.27037 19.6437C4.15577 19.6401 4.13561 19.5627 4.08086 19.4318L2.63284 16.5691L1.86523 16.5979C1.82126 16.5878 1.78234 16.5971 1.75063 16.5944C1.31169 16.5756 0.165062 16.1807 0.175981 15.7462ZM1.99996 8.99997C1.44768 8.99997 0.999964 8.55226 0.999964 7.99997C0.999964 7.44769 1.44768 6.99997 1.99996 6.99997C2.55225 6.99997 2.99996 7.44769 2.99996 7.99997C2.99996 8.55226 2.55225 8.99997 1.99996 8.99997ZM3.99996 8.24997C3.86189 8.24997 3.74996 8.13804 3.74996 7.99997C3.74996 7.8619 3.86189 7.74997 3.99996 7.74997H4.99996C5.13803 7.74997 5.24996 7.8619 5.24996 7.99997C5.24996 8.13804 5.13803 8.24997 4.99996 8.24997H3.99996ZM6.49996 8.24997C6.36189 8.24997 6.24996 8.13804 6.24996 7.99997C6.24996 7.8619 6.36189 7.74997 6.49996 7.74997H7.49996C7.63803 7.74997 7.74996 7.8619 7.74996 7.99997C7.74996 8.13804 7.63803 8.24997 7.49996 8.24997H6.49996ZM8.99996 8.24997C8.86189 8.24997 8.74996 8.13804 8.74996 7.99997C8.74996 7.8619 8.86189 7.74997 8.99996 7.74997H9.99996C10.138 7.74997 10.25 7.8619 10.25 7.99997C10.25 8.13804 10.138 8.24997 9.99996 8.24997H8.99996ZM11.5 8.24997C11.3619 8.24997 11.25 8.13804 11.25 7.99997C11.25 7.8619 11.3619 7.74997 11.5 7.74997H12.5C12.638 7.74997 12.75 7.8619 12.75 7.99997C12.75 8.13804 12.638 8.24997 12.5 8.24997H11.5ZM14 8.24997C13.8619 8.24997 13.75 8.13804 13.75 7.99997C13.75 7.8619 13.8619 7.74997 14 7.74997H15C15.138 7.74997 15.25 7.8619 15.25 7.99997C15.25 8.13804 15.138 8.24997 15 8.24997H14ZM22 17.0108C21.4477 17.0108 21 16.5631 21 16.0108C21 15.4585 21.4477 15.0108 22 15.0108C22.5522 15.0108 23 15.4585 23 16.0108C23 16.5631 22.5522 17.0108 22 17.0108ZM19.2552 16.2608H18.2552C18.1171 16.2608 18.0052 16.1489 18.0052 16.0108C18.0052 15.8727 18.1171 15.7608 18.2552 15.7608H19.2552C19.3933 15.7608 19.5052 15.8727 19.5052 16.0108C19.5052 16.1489 19.3933 16.2608 19.2552 16.2608ZM16.7552 16.2608H15.7552C15.6171 16.2608 15.5052 16.1489 15.5052 16.0108C15.5052 15.8727 15.6171 15.7608 15.7552 15.7608H16.7552C16.8933 15.7608 17.0052 15.8727 17.0052 16.0108C17.0052 16.1489 16.8933 16.2608 16.7552 16.2608ZM14.2552 16.2608H13.2552C13.1171 16.2608 13.0052 16.1489 13.0052 16.0108C13.0052 15.8727 13.1171 15.7608 13.2552 15.7608H14.2552C14.3933 15.7608 14.5052 15.8727 14.5052 16.0108C14.5052 16.1489 14.3933 16.2608 14.2552 16.2608ZM11.7552 16.2608H10.7552C10.6171 16.2608 10.5052 16.1489 10.5052 16.0108C10.5052 15.8727 10.6171 15.7608 10.7552 15.7608H11.7552C11.8933 15.7608 12.0052 15.8727 12.0052 16.0108C12.0052 16.1489 11.8933 16.2608 11.7552 16.2608ZM9.25521 16.2608H8.25521C8.11713 16.2608 8.00521 16.1489 8.00521 16.0108C8.00521 15.8727 8.11713 15.7608 8.25521 15.7608H9.25521C9.39328 15.7608 9.50521 15.8727 9.50521 16.0108C9.50521 16.1489 9.39328 16.2608 9.25521 16.2608Z" fill="#11397E"/>
</svg>

<svg xmlns="http://www.w3.org/2000/svg" width="24" height="24" fill="currentColor"><path fill-rule="evenodd" d="M23.822 8.005c.004.434-1.142.792-1.581.788-.032-.001-.064-.003-.108-.012l-.769-.058-1.446 2.816c-.049.117-.077.198-.192.198l-.395.005c-.26 0-.234-.05-.203-.193l.557-2.508-.011-.422-.394-.027c-.478.008-1.066-.11-1.54-.229l-.664.993c-.108.164-.077.197-.192.198-.261-.001-.216-.024-.204-.193l.181-1.18c-.005-.051.01-.107.043-.137-.006-.02-.03-.033-.024-.045-.006-.02.02-.037.053-.067-.05-.028-.067-.085-.072-.136l-.214-1.175c-.02-.171-.057-.192.191-.198.115 0 .095.036.204.193l.71 1.018c.463-.128 1.04-.224 1.51-.22l.39-.024-.011-.422-.634-2.512c-.033-.147-.07-.199.192-.198l.395-.005c.114 0 .137.076.197.205l1.546 2.81.767-.055c.044.008.082-.003.114 0 .44.002 1.6.357 1.604.792ZM.176 15.746c.01-.434 1.169-.751 1.607-.732.032.002.064.005.108.015l.766.085 1.544-2.764c.052-.115.083-.195.198-.191l.395.008c.261.01.232.058.197.2l-.644 2.488-.004.422.393.04c.477.01 1.061.148 1.53.283l.7-.968c.112-.161.083-.195.197-.191.261.01.215.03.197.2l-.222 1.173c.003.05-.013.106-.047.135.005.019.03.034.022.046.005.019-.021.036-.055.064.049.03.064.088.067.139l.173 1.182c.014.171.05.193-.198.19-.115-.003-.093-.039-.197-.199l-.674-1.042c-.467.111-1.047.188-1.517.166l-.39.01-.004.423.546 2.533c.028.148.062.201-.199.191l-.395-.008c-.114-.004-.134-.081-.19-.212l-1.447-2.863-.768.029c-.044-.01-.083 0-.114-.004-.44-.018-1.586-.413-1.575-.848ZM2 9a1 1 0 1 1 0-2 1 1 0 0 1 0 2Zm2-.75a.25.25 0 0 1 0-.5h1a.25.25 0 0 1 0 .5H4Zm2.5 0a.25.25 0 0 1 0-.5h1a.25.25 0 0 1 0 .5h-1Zm2.5 0a.25.25 0 0 1 0-.5h1a.25.25 0 0 1 0 .5H9Zm2.5 0a.25.25 0 1 1 0-.5h1a.25.25 0 0 1 0 .5h-1Zm2.5 0a.25.25 0 1 1 0-.5h1a.25.25 0 0 1 0 .5h-1Zm8 8.76a1 1 0 1 1 0-2 1 1 0 0 1 0 2Zm-2.745-.75h-1a.25.25 0 1 1 0-.5h1a.25.25 0 1 1 0 .5Zm-2.5 0h-1a.25.25 0 1 1 0-.5h1a.25.25 0 1 1 0 .5Zm-2.5 0h-1a.25.25 0 1 1 0-.5h1a.25.25 0 1 1 0 .5Zm-2.5 0h-1a.25.25 0 1 1 0-.5h1a.25.25 0 1 1 0 .5Zm-2.5 0h-1a.25.25 0 1 1 0-.5h1a.25.25 0 1 1 0 .5Z" clip-rule="evenodd"/></svg>
